X: 44
T: No_4_Hunter's_Prayer_Song.krn
N: Derived from No_4_Hunter's_Prayer_Song.krn
%%abc-version 2.0
%%abcx-abcm2ps-target-version 5.9.1 (29 Sep 2008)
%%abc-creator hum2abc beta
%%abcx-conversion-date 2019/03/15 08:25:35
%%humdrum-veritas 3379066886
%%humdrum-veritas-data 3124316837
%%linebreak <none>
%%barnumbers 0
L: 1/8
M: 2/4
K: Bb clef=bass
[K:clef=bass][M:2/4]z2B,B, ]|:  
EF EE/C/ | 
EC B,B, | 
E/C3/ C/B,3/ | 
B,G, F,B, | 
B,B, B,B, | 
B, z B,B, | 
E/C3/ C/B,3/ | 
B,G, F,B, | 
B,B, B,B, | 
D/C/ z B,B, | 
F2(3FEC | 
(3ECC B,B, | 
C2CB, | 
B,G, B,B, | 
B,B, B,B, | 
B, z B,B, | 
C2CB, | 
B,3/G,/ F,B, | 
B,B, B,B, | 
D/C/C/B,/ CB, | 
[M:3/4]C2CB, B, z | 
B,B, B,B, B,B, | 
[M:2/4]C2CB, :|]  



